src/lib/images/RupeeInCircleBolder.svg

<svg width="25" height="24" viewBox="0 0 25 24" fill="none" xmlns="http://www.w3.org/2000/svg">
    <path d="M10.2754 8.5H12.5499H14.8244" stroke="#425061" stroke-width="1.5" stroke-linecap="round"/>
    <path d="M10.1738 10.8839L11.3358 10.8925L12.4979 10.9011L14.8219 10.9183" stroke="#425061" stroke-width="1.5" stroke-linecap="round"/>
    <path d="M10.1738 13.4821V12.7321C9.85988 12.7321 9.57916 12.9276 9.47033 13.2221C9.3615 13.5166 9.4476 13.8477 9.6861 14.0519L10.1738 13.4821ZM13.2116 17.0698C13.5262 17.3391 13.9997 17.3024 14.2691 16.9877C14.5384 16.6731 14.5017 16.1996 14.187 15.9302L13.2116 17.0698ZM12.9493 10.773C12.9493 11.5152 12.5826 11.9698 12.0384 12.2776C11.4586 12.6055 10.7149 12.7321 10.1738 12.7321V14.2321C10.8889 14.2321 11.908 14.0746 12.7768 13.5832C13.6813 13.0716 14.4493 12.1717 14.4493 10.773H12.9493ZM11.4248 9.25C12.2672 9.25 12.9493 9.93234 12.9493 10.773H14.4493C14.4493 9.10295 13.0947 7.75 11.4248 7.75V9.25ZM9.6861 14.0519L13.2116 17.0698L14.187 15.9302L10.6616 12.9124L9.6861 14.0519Z" fill="#425061"/>
    <circle cx="12.5" cy="12" r="9.25" stroke="#425061" stroke-width="1.5" stroke-linecap="round" stroke-linejoin="round"/>
</svg>

<svg  width="25" height="24" xmlns="http://www.w3.org/2000/svg" fill="none" viewBox="0 0 25 24"><path stroke="#425061" stroke-linecap="round" stroke-width="1.5" d="M10.275 8.5H14.824M10.174 10.884l1.162.008 1.162.009 2.324.017"/><path fill="#425061" d="M10.174 13.482v-.75a.75.75 0 0 0-.488 1.32l.488-.57Zm3.038 3.588a.75.75 0 0 0 .975-1.14l-.975 1.14Zm-.263-6.297c0 .742-.366 1.197-.91 1.505-.58.327-1.324.454-1.865.454v1.5c.715 0 1.734-.157 2.603-.649.904-.511 1.672-1.411 1.672-2.81h-1.5ZM11.425 9.25c.842 0 1.524.682 1.524 1.523h1.5a3.024 3.024 0 0 0-3.024-3.023v1.5Zm-1.739 4.802 3.526 3.018.975-1.14-3.525-3.018-.976 1.14Z"/><circle cx="12.5" cy="12" r="9.25" stroke="#425061" stroke-linecap="round" stroke-linejoin="round" stroke-width="1.5"/></svg>
